!!!COM: Palestrina, Giovanni Perluigi da
!!!OPR: Missa Vestiva i colli
!!!OMD: Kyrie
!!!OTL: First Section
**kern	**kern	**kern	**kern	**kern
*Ibass	*Itenor	*Itenor	*Icalto	*Icant
!Bassus	!Tenor 2	!Tenor 1	!Altus	!Cantus
*clefF4	*clefGv2	*clefGv2	*clefG2	*clefG2
*k[]	*k[]	*k[]	*k[]	*k[]
*A:aeo	*A:aeo	*A:aeo	*A:aeo	*A:aeo
*M4/2	*M4/2	*M4/2	*M4/2	*M4/2
=1	=1	=1	=1	=1
0r	0r	0r	1d	0r
.	.	.	2.a	.
.	.	.	4a	.
=2	=2	=2	=2	=2
0r	0r	0r	2f	1a
.	.	.	2d	.
.	.	.	2f	2.dd
.	.	.	2g	.
.	.	.	.	4dd
=3	=3	=3	=3	=3
0r	0r	0r	1.a	2cc
.	.	.	.	2a
.	.	.	.	2cc
.	.	.	2b	2dd
=4	=4	=4	=4	=4
0r	0r	1A	4cc	1ee
.	.	.	4b	.
.	.	.	4a	.
.	.	.	4g	.
.	.	2.d	4f	2dd
.	.	.	4g	.
.	.	.	[2a	2ff
.	.	4d	.	.
=5	=5	=5	=5	=5
0r	0r	2c	4a]	1.ee
.	.	.	4g	.
.	.	2A	2.cc	.
.	.	2c	.	.
.	.	.	4b	.
.	.	2d	[2a	4dd
.	.	.	.	4cc
=6	=6	=6	=6	=6
0r	1r	1.e	2a]	4b
.	.	.	.	4a
.	.	.	2g#	2b
.	1A	.	[1a	2cc
.	.	2c	.	[2ee
=7	=7	=7	=7	=7
1D	2.d	1f	0a]	2ee]
.	.	.	.	2dd
.	4d	.	.	.
2.A	2c	4e	.	1ee
.	.	4d	.	.
.	2A	4c	.	.
4A	.	4B	.	.
=8	=8	=8	=8	=8
2F	2c	1.A	2r	0r
2D	1d	.	1a	.
2F	.	.	.	.
2G	[2e	2B	4g	.
.	.	.	4f	.
=9	=9	=9	=9	=9
2.A	4e]	4c	2e	1a
.	4c	4A	.	.
.	1f	1a	2c	.
4F	.	.	.	.
1B-	.	.	1d	2.dd
.	4e	2g	.	.
.	4d	.	.	4dd
=10	=10	=10	=10	=10
1A	2e	1a	2r	2cc
.	2f	.	2a	2a
2r	2e	1r	2g	2cc
2d	2d	.	2f	2dd
=11	=11	=11	=11	=11
2d	2.a	2r	1e	1ee
2c#	.	2a	.	.
.	4g	.	.	.
2d	2f	2a	1r	2r
2B-	2d	2g	.	2dd
=12	=12	=12	=12	=12
2.A	1e	1.a	0r	2dd
.	.	.	.	2cc#
4G	.	.	.	.
2F	2r	.	.	2.dd
2D	2d	2a	.	.
.	.	.	.	4ee
=13	=13	=13	=13	=13
1A	2d	2.a	2r	2ff
.	2c#	.	2a	2ee
.	.	4g	.	.
1B-	2.d	4f	2a	1dd
.	.	4e	.	.
.	.	2d	2g	.
.	4e	.	.	.
=14	=14	=14	=14	=14
1A	2f	0r	2.a	2.cc
.	4e	.	.	.
.	4d	.	4b	4dd
1r	2c	.	2cc	2ee
.	2d	.	[2b	[2dd
=15	=15	=15	=15	=15
0r	1f	0r	4b]	4dd]
.	.	.	4a	4cc
.	.	.	1a	4cc
.	.	.	.	8b
.	.	.	.	8a
.	2.e	.	.	1b
.	.	.	2g#	.
.	4d	.	.	.
=16	=16	=16	=16	=16
0r	2c#	2r	2a	[0a
.	2d	2d	2f	.
.	1A	2d	1e	.
.	.	2c#	.	.
=17	=17	=17	=17	=17
2r	0r	2.d	2.f	0a]
2d	.	.	.	.
.	.	4e	4e	.
2d	.	2f	2d	.
2c#	.	2e	2A	.
=18	=18	=18	=18	=18
2d	2r	2d	0a	1r
2D	2d	2f	.	.
2.A	2d	1e	.	2r
.	2c#	.	.	2a
4G	.	.	.	.
=19	=19	=19	=19	=19
2F	2.d	2r	1r	2a
2B-	.	2d	.	2g
.	4e	.	.	.
1A	2f	2d	2r	1a
.	2e	2c#	2a	.
=20	=20	=20	=20	=20
1r	2r	2d	2a	1b
.	2e	2e	2g#	.
2r	2e	1A	2.a	2.cc
2A	2f	.	.	.
.	.	.	4b	4dd
=21	=21	=21	=21	=21
2A	2.e	1r	2cc	0ee
2G#	.	.	2b	.
.	4d	.	.	.
2.A	4c	2r	2.a	.
.	4B	.	.	.
.	[2A	2a	.	.
4B	.	.	8g	.
.	.	.	8f	.
=22	=22	=22	=22	=22
2c	2A]	2a	2e	0r
2B	1d	2g#	2d	.
1A	.	2.a	1e	.
.	2c#	.	.	.
.	.	4g	.	.
=23	=23	=23	=23	=23
2.D	1d	2f	2d	2r
.	.	2d	2f	2dd
4E	.	.	.	.
4F	1r	[1a	2f	2dd
4G	.	.	.	.
2A	.	.	2e	2cc
=24	=24	=24	=24	=24
1D	2r	2a]	2.f	2.dd
.	2d	2a	.	.
.	.	.	4g	4ee
1r	2d	2d	1a	2ff
.	2c#	2e	.	2ee
=25	=25	=25	=25	=25
2r	2.d	2f	1a	2.dd
2D	.	1d	.	.
.	4e	.	.	8cc
.	.	.	.	8b
2D	2f	.	1r	[1a
2C#	2e	2e	.	.
=26	=26	=26	=26	=26
2.D	2.d	2.f	2r	1a]
.	.	.	2a	.
4E	8c	4e	.	.
.	8B	.	.	.
2F	2A	4c	2a	2r
.	.	4d	.	.
2E	2B	2e	2g#	2ee
=27	=27	=27	=27	=27
2D	2d	1A	2.a	2ff
2F	2A	.	.	2dd
.	.	.	4b	.
[1E	2A	[1e	2cc	[1ee
.	2G#	.	4b	.
.	.	.	4a	.
=28	=28	=28	=28	=28
0E]	2B	1e]	2g#	0ee]
.	2c	.	1a	.
.	1B	1e	.	.
.	.	.	2g#	.
=29	=29	=29	=29	=29
0AA	0A	0e	0a	0cc#
*-	*-	*-	*-	*-
!!!CDT: 1525/^1526/-1594/2/2
!!!OCY: Italia
!!!AGN: Mass (Parody)
!!!AST: renaissance, vocal
!!!ASW: Madrigal 1566 (Palestrina)
!!!PWK: Masses, Book 9
!!!RNB: Cadence finals: D
!!!YOR: Le Opere Complete, v. 25, p. 54
!!!YOO: Rome, Italy: Fratelli Scalera
!!!END: 1992//
!!!EED: John Miller
!!!YEC: Copyright 2000, John Miller
!!!YEN: United States of America
!!!YEM: Rights to all derivative electronic formats reserved.
!!!YEM: Refer to licensing agreement for further details.
!!!YEM: This file must be accompanied by the licensing agreement.
!!!YEM: A copy of the licensing agreement may be found at http://www.music-cog.ohio-state.edu/HumdrumDatabases/Palestrina/license.txt
!!!EMD: converted to Humdrum by Bret Aarden
